Numix-GalliumOS/32/categories/applications-graphics.svg

<?xml version="1.0" encoding="UTF-8" standalone="no"?>
<svg
   xmlns:dc="http://purl.org/dc/elements/1.1/"
   xmlns:cc="http://creativecommons.org/ns#"
   xmlns:rdf="http://www.w3.org/1999/02/22-rdf-syntax-ns#"
   xmlns:svg="http://www.w3.org/2000/svg"
   xmlns="http://www.w3.org/2000/svg"
   xmlns:sodipodi="http://sodipodi.sourceforge.net/DTD/sodipodi-0.dtd"
   xmlns:inkscape="http://www.inkscape.org/namespaces/inkscape"
   width="32"
   height="32"
   viewBox="0 0 32 32"
   id="svg2"
   version="1.1"
   inkscape:version="0.91 r"
   sodipodi:docname="applications-graphics.svg">
  <metadata
     id="metadata16">
    <rdf:RDF>
      <cc:Work
         rdf:about="">
        <dc:format>image/svg+xml</dc:format>
        <dc:type
           rdf:resource="http://purl.org/dc/dcmitype/StillImage" />
      </cc:Work>
    </rdf:RDF>
  </metadata>
  <defs
     id="defs14" />
  <sodipodi:namedview
     pagecolor="#ffffff"
     bordercolor="#666666"
     borderopacity="1"
     objecttolerance="10"
     gridtolerance="10"
     guidetolerance="10"
     inkscape:pageopacity="0"
     inkscape:pageshadow="2"
     inkscape:window-width="640"
     inkscape:window-height="480"
     id="namedview12" />
  <g
     style="fill:#4ea34d"
     id="g4">
    <path
       d="M 15.742188 10.878906 C 10.667969 11.105469 5.730469 13.578125 7.828125 18.589844 C 10.886719 17.4375 15.144531 19.15625 13.375 20.003906 C 16.859375 22.871094 25.464844 18.238281 24.605469 14.296875 C 23.71875 11.898438 19.691406 10.703125 15.742188 10.878906 Z M 15.609375 12.292969 C 16.667969 12.292969 17.527344 12.578125 17.527344 12.925781 C 17.527344 13.273438 16.667969 13.558594 15.609375 13.558594 C 14.550781 13.558594 13.691406 13.273438 13.691406 12.925781 C 13.691406 12.578125 14.550781 12.292969 15.609375 12.292969 Z M 20.34375 13.339844 C 21.402344 13.339844 22.261719 13.621094 22.261719 13.972656 C 22.261719 14.320312 21.402344 14.601562 20.34375 14.601562 C 19.285156 14.601562 18.425781 14.320312 18.425781 13.972656 C 18.425781 13.621094 19.285156 13.339844 20.34375 13.339844 Z M 11.640625 14.296875 C 12.699219 14.296875 13.554688 14.582031 13.554688 14.929688 C 13.554688 15.277344 12.699219 15.5625 11.640625 15.5625 C 10.582031 15.5625 9.722656 15.277344 9.722656 14.929688 C 9.722656 14.582031 10.582031 14.296875 11.640625 14.296875 Z M 20.300781 15.953125 C 21.359375 15.953125 22.214844 16.238281 22.214844 16.585938 C 22.214844 16.933594 21.359375 17.21875 20.300781 17.21875 C 19.242188 17.21875 18.382812 16.933594 18.382812 16.585938 C 18.382812 16.238281 19.242188 15.953125 20.300781 15.953125 Z M 16.960938 18.347656 C 18.019531 18.347656 18.878906 18.632812 18.878906 18.980469 C 18.878906 19.328125 18.019531 19.613281 16.960938 19.613281 C 15.902344 19.613281 15.042969 19.328125 15.042969 18.980469 C 15.042969 18.632812 15.902344 18.347656 16.960938 18.347656 Z "
       id="path6" />
    <path
       d="M 22.972656 6.074219 L 13.566406 21.808594 C 12.832031 21.796875 12.148438 21.445312 11.65625 20.746094 L 21.738281 5.382812 C 22.414062 5.222656 22.828125 5.453125 22.972656 6.074219 Z "
       id="path8" />
    <path
       d="M 11.601562 24.546875 C 12.65625 24.40625 14.289062 23.058594 13.527344 21.113281 C 11.699219 20.589844 12.113281 20.324219 12.113281 20.324219 C 9.601562 20.925781 7.691406 23.796875 8.21875 25.625 C 8.550781 26.78125 8.496094 26.664062 8.496094 26.664062 C 9.191406 24.425781 9.207031 24.835938 11.601562 24.546875 Z "
       id="path10" />
  </g>
</svg>

<svg xmlns="http://www.w3.org/2000/svg" viewBox="0 0 32 32">
 <g style="fill:#4ea34d">
  <path d="m 15.742 10.879 c -5.074 0.227 -10.01 2.699 -7.914 7.711 c 3.059 -1.152 7.316 0.566 5.547 1.414 c 3.484 2.867 12.09 -1.766 11.23 -5.707 c -0.887 -2.398 -4.914 -3.594 -8.863 -3.418 m -0.133 1.414 c 1.059 0 1.918 0.285 1.918 0.633 c 0 0.348 -0.859 0.633 -1.918 0.633 c -1.059 0 -1.918 -0.285 -1.918 -0.633 c 0 -0.348 0.859 -0.633 1.918 -0.633 m 4.734 1.047 c 1.059 0 1.918 0.281 1.918 0.633 c 0 0.348 -0.859 0.629 -1.918 0.629 c -1.059 0 -1.918 -0.281 -1.918 -0.629 c 0 -0.352 0.859 -0.633 1.918 -0.633 m -8.703 0.957 c 1.059 0 1.914 0.285 1.914 0.633 c 0 0.348 -0.855 0.633 -1.914 0.633 c -1.059 0 -1.918 -0.285 -1.918 -0.633 c 0 -0.348 0.859 -0.633 1.918 -0.633 m 8.66 1.656 c 1.059 0 1.914 0.285 1.914 0.633 c 0 0.348 -0.855 0.633 -1.914 0.633 c -1.059 0 -1.918 -0.285 -1.918 -0.633 c 0 -0.348 0.859 -0.633 1.918 -0.633 m -3.34 2.395 c 1.059 0 1.918 0.285 1.918 0.633 c 0 0.348 -0.859 0.633 -1.918 0.633 c -1.059 0 -1.918 -0.285 -1.918 -0.633 c 0 -0.348 0.859 -0.633 1.918 -0.633 Z"/>
  <path d="m 22.973 6.074 l -9.406 15.734 c -0.734 -0.012 -1.418 -0.363 -1.91 -1.063 l 10.08 -15.363 c 0.676 -0.16 1.09 0.07 1.234 0.691 Z"/>
  <path d="m 11.602 24.547 c 1.055 -0.141 2.688 -1.488 1.926 -3.434 c -1.828 -0.523 -1.414 -0.789 -1.414 -0.789 c -2.512 0.602 -4.422 3.473 -3.895 5.301 c 0.332 1.156 0.277 1.039 0.277 1.039 c 0.695 -2.238 0.711 -1.828 3.105 -2.117 Z"/>
 </g>
</svg>
